src/images/svg/security/critical.svg

<svg width="48" height="48" viewBox="0 0 48 48" fill="none" xmlns="http://www.w3.org/2000/svg">
<path fill-rule="evenodd" clip-rule="evenodd" d="M39 0C43.9706 0 48 4.0294 48 9V39C48 43.9706 43.9706 48 39 48H9C4.0294 48 0 43.9706 0 39V9C0 4.0294 4.0294 0 9 0H39Z" fill="#FF444F"/>
<path fill-rule="evenodd" clip-rule="evenodd" d="M22.8528 13.3615C23.5414 12.8795 24.458 12.8795 25.1466 13.3615L35.1466 20.3615C36.0515 20.995 36.2716 22.242 35.6381 23.1469C35.0047 24.0518 33.7577 24.2719 32.8528 23.6385L23.9997 17.4413L15.1466 23.6385C14.2417 24.2719 12.9946 24.0518 12.3612 23.1469C11.7278 22.242 11.9479 20.995 12.8528 20.3615L22.8528 13.3615ZM12.8528 30.3615L22.8528 23.3615C23.5414 22.8795 24.458 22.8795 25.1466 23.3615L35.1466 30.3615C36.0515 30.995 36.2716 32.242 35.6381 33.1469C35.0047 34.0518 33.7577 34.2719 32.8528 33.6385L23.9997 27.4413L15.1466 33.6385C14.2417 34.2719 12.9946 34.0518 12.3612 33.1469C11.7278 32.242 11.9479 30.995 12.8528 30.3615Z" fill="white"/>
</svg>

<svg width="48" height="48" fill="none" xmlns="http://www.w3.org/2000/svg"><path fill-rule="evenodd" clip-rule="evenodd" d="M39 0a9 9 0 0 1 9 9v30a9 9 0 0 1-9 9H9a9 9 0 0 1-9-9V9a9 9 0 0 1 9-9h30Z" fill="#FF444F"/><path fill-rule="evenodd" clip-rule="evenodd" d="M22.853 13.361a2 2 0 0 1 2.294 0l10 7a2 2 0 0 1-2.294 3.277L24 17.442l-8.853 6.198a2 2 0 0 1-2.294-3.277l10-7Zm-10 17 10-7a2 2 0 0 1 2.294 0l10 7a2 2 0 0 1-2.294 3.277L24 27.442l-8.853 6.198a2 2 0 0 1-2.294-3.278Z" fill="#fff"/></svg>
